icons/ArrowRight_filled.svg

<svg width="24" height="24" viewBox="0 0 24 24" fill="none" xmlns="http://www.w3.org/2000/svg">
<path fill-rule="evenodd" clip-rule="evenodd" d="M19.8839,11.1161c0.4881,0.4882 0.4881,1.2796 0,1.7678l-6,6c-0.4882,0.4881 -1.2796,0.4881 -1.7678,0c-0.4881,-0.4882 -0.4881,-1.2796 0,-1.7678l3.8661,-3.8661h-10.9822c-0.69036,0 -1.25,-0.5596 -1.25,-1.25c0,-0.6903 0.55964,-1.25 1.25,-1.25h10.9822l-3.8661,-3.86611c-0.4881,-0.48815 -0.4881,-1.27961 0,-1.76777c0.4882,-0.48815 1.2796,-0.48815 1.7678,0z" fill="#002B51"/>
</svg>

<svg width="24" height="24" viewBox="0 0 24 24" fill="none" xmlns="http://www.w3.org/2000/svg">
<path fill-rule="evenodd" clip-rule="evenodd" d="M19.8839 11.1161C20.372 11.6043 20.372 12.3957 19.8839 12.8839L13.8839 18.8839C13.3957 19.372 12.6043 19.372 12.1161 18.8839C11.628 18.3957 11.628 17.6043 12.1161 17.1161L15.9822 13.25H5C4.30964 13.25 3.75 12.6904 3.75 12C3.75 11.3097 4.30964 10.75 5 10.75H15.9822L12.1161 6.88389C11.628 6.39574 11.628 5.60428 12.1161 5.11612C12.6043 4.62797 13.3957 4.62797 13.8839 5.11612L19.8839 11.1161Z" fill="#002B51"/>
</svg>
